X: 31320
T: Paddy Kenny's
R: polka
M: 2/4
K: Amajor
|:c/B/|A>F EF|AB/c/ de|fc/e/ c/B/A|BA FE|
A2 E>F|AB ce|ec/e/ c>B|BA A:|
|:c|e2 ec/e/|fe ce|Be Bc|BA FA|
[1 e2 ec/e/|fe cA|Be B>c|BA A:|
[2 A>F EF|AB/c/ df|ec cB|BA A2||

